img/svg/catalog.svg

<svg width="761" height="478" viewBox="0 0 761 478" fill="none" xmlns="http://www.w3.org/2000/svg">
<g clip-path="url(#clip0_178_2169)">
<path d="M511.929 82V46.6L476.629 82H511.929Z" fill="#4611EA"/>
<path d="M617.929 371.8C696.74 371.8 760.629 307.911 760.629 229.1C760.629 150.289 696.74 86.4 617.929 86.4C539.118 86.4 475.229 150.289 475.229 229.1C475.229 307.911 539.118 371.8 617.929 371.8Z" stroke="#F8D84D" stroke-width="3" stroke-miterlimit="10" stroke-linecap="round" stroke-linejoin="round"/>
<path d="M617.929 363.8C692.322 363.8 752.629 303.493 752.629 229.1C752.629 154.707 692.322 94.4 617.929 94.4C543.536 94.4 483.229 154.707 483.229 229.1C483.229 303.493 543.536 363.8 617.929 363.8Z" stroke="#F8D84D" stroke-width="3" stroke-miterlimit="10" stroke-linecap="round" stroke-linejoin="round"/>
<path d="M617.929 355.8C687.903 355.8 744.629 299.074 744.629 229.1C744.629 159.126 687.903 102.4 617.929 102.4C547.954 102.4 491.229 159.126 491.229 229.1C491.229 299.074 547.954 355.8 617.929 355.8Z" stroke="#F8D84D" stroke-width="3" stroke-miterlimit="10" stroke-linecap="round" stroke-linejoin="round"/>
<path d="M617.929 347.7C683.43 347.7 736.529 294.601 736.529 229.1C736.529 163.599 683.43 110.5 617.929 110.5C552.428 110.5 499.329 163.599 499.329 229.1C499.329 294.601 552.428 347.7 617.929 347.7Z" stroke="#F8D84D" stroke-width="3" stroke-miterlimit="10" stroke-linecap="round" stroke-linejoin="round"/>
<path d="M617.929 339.7C679.011 339.7 728.529 290.183 728.529 229.1C728.529 168.017 679.011 118.5 617.929 118.5C556.846 118.5 507.329 168.017 507.329 229.1C507.329 290.183 556.846 339.7 617.929 339.7Z" stroke="#F8D84D" stroke-width="3" stroke-miterlimit="10" stroke-linecap="round" stroke-linejoin="round"/>
<path d="M617.929 331.7C674.593 331.7 720.529 285.764 720.529 229.1C720.529 172.436 674.593 126.5 617.929 126.5C561.264 126.5 515.329 172.436 515.329 229.1C515.329 285.764 561.264 331.7 617.929 331.7Z" stroke="#F8D84D" stroke-width="3" stroke-miterlimit="10" stroke-linecap="round" stroke-linejoin="round"/>
<path d="M617.929 323.6C670.12 323.6 712.429 281.291 712.429 229.1C712.429 176.909 670.12 134.6 617.929 134.6C565.738 134.6 523.429 176.909 523.429 229.1C523.429 281.291 565.738 323.6 617.929 323.6Z" stroke="#F8D84D" stroke-width="3" stroke-miterlimit="10" stroke-linecap="round" stroke-linejoin="round"/>
<path d="M617.929 315.6C665.701 315.6 704.429 276.873 704.429 229.1C704.429 181.327 665.701 142.6 617.929 142.6C570.156 142.6 531.429 181.327 531.429 229.1C531.429 276.873 570.156 315.6 617.929 315.6Z" stroke="#F8D84D" stroke-width="3" stroke-miterlimit="10" stroke-linecap="round" stroke-linejoin="round"/>
<path d="M617.929 307.6C661.283 307.6 696.429 272.454 696.429 229.1C696.429 185.746 661.283 150.6 617.929 150.6C574.574 150.6 539.429 185.746 539.429 229.1C539.429 272.454 574.574 307.6 617.929 307.6Z" stroke="#F8D84D" stroke-width="3" stroke-miterlimit="10" stroke-linecap="round" stroke-linejoin="round"/>
<path d="M617.929 236C621.74 236 624.829 232.911 624.829 229.1C624.829 225.289 621.74 222.2 617.929 222.2C614.118 222.2 611.029 225.289 611.029 229.1C611.029 232.911 614.118 236 617.929 236Z" fill="#F8D84D"/>
<path d="M119.429 457.1L348.629 339C352.529 337 354.129 332.2 352.029 328.2L282.229 192.8C280.229 188.9 275.429 187.3 271.429 189.4L42.3288 307.4C38.4288 309.4 36.8288 314.2 38.9288 318.2L108.729 453.6C110.729 457.6 115.529 459.1 119.429 457.1Z" stroke="#6BD3B1" stroke-width="3" stroke-miterlimit="10" stroke-linecap="round" stroke-linejoin="round"/>
<path d="M175.529 311.4L193.529 346.3L216.529 312.4L175.529 311.4Z" fill="#6BD3B1"/>
<path d="M121.929 430.7L325.729 325.7" stroke="#6BD3B1" stroke-width="3" stroke-miterlimit="10" stroke-linecap="round" stroke-linejoin="round"/>
<path d="M147.029 425.5C151.558 425.5 155.229 421.829 155.229 417.3C155.229 412.771 151.558 409.1 147.029 409.1C142.5 409.1 138.829 412.771 138.829 417.3C138.829 421.829 142.5 425.5 147.029 425.5Z" fill="#6BD3B1"/>
<path d="M453.029 476.6L336.329 420.9C332.329 419 330.629 414.2 332.529 410.2L388.229 293.5C390.129 289.5 394.929 287.8 398.929 289.7L515.629 345.4C519.629 347.3 521.329 352.1 519.429 356.1L463.729 472.8C461.729 476.8 457.029 478.5 453.029 476.6Z" stroke="#4611EA" stroke-width="3" stroke-miterlimit="10" stroke-linecap="round" stroke-linejoin="round"/>
<path d="M416.429 398.7L407.329 417.7" stroke="white" stroke-width="3" stroke-miterlimit="10" stroke-linecap="round" stroke-linejoin="round"/>
<path d="M447.729 383.5L445.529 388.2C440.329 399 427.429 403.6 416.629 398.4C405.829 393.2 401.229 380.3 406.429 369.5L408.629 364.8" stroke="white" stroke-width="3" stroke-miterlimit="10" stroke-linecap="round" stroke-linejoin="round"/>
<path d="M421.729 387.5C416.529 385 414.329 378.8 416.829 373.7L426.029 354.5C428.529 349.3 434.729 347.1 439.829 349.6C445.029 352.1 447.229 358.3 444.729 363.4L435.529 382.6C433.129 387.8 426.929 390 421.729 387.5Z" stroke="white" stroke-width="3" stroke-miterlimit="10" stroke-linecap="round" stroke-linejoin="round"/>
<path d="M236.629 107.2L375.629 248.7C378.729 251.9 383.829 251.9 386.929 248.8L481.729 155.7C484.929 152.6 484.929 147.5 481.829 144.4L342.829 2.9C339.729 -0.300001 334.629 -0.300001 331.529 2.8L236.729 95.9C233.529 99 233.529 104.1 236.629 107.2Z" stroke="#7D58F0" stroke-width="3" stroke-miterlimit="10" stroke-linecap="round" stroke-linejoin="round"/>
<path d="M351.729 151.2L365.329 105.3L319.129 118L351.729 151.2Z" fill="#7D58F0"/>
<path d="M363.729 163.4L372.829 132.6L341.829 141.1L363.729 163.4Z" fill="#7D58F0"/>
<path d="M383.829 127.1C386.756 127.1 389.129 124.727 389.129 121.8C389.129 118.873 386.756 116.5 383.829 116.5C380.902 116.5 378.529 118.873 378.529 121.8C378.529 124.727 380.902 127.1 383.829 127.1Z" fill="#7D58F0"/>
<path d="M161.429 168.1V114.3H182.529" stroke="#ED616C" stroke-width="3" stroke-miterlimit="10" stroke-linecap="round" stroke-linejoin="round"/>
<path d="M151.929 178.4C146.629 178.4 142.329 174.1 142.329 168.8C142.329 163.5 146.629 159.2 151.929 159.2C157.229 159.2 161.529 163.5 161.529 168.8C161.429 174.1 157.229 178.4 151.929 178.4Z" stroke="#ED616C" stroke-width="3" stroke-miterlimit="10" stroke-linecap="round" stroke-linejoin="round"/>
<path d="M157.329 219.5C199.247 219.5 233.229 185.518 233.229 143.6C233.229 101.682 199.247 67.7 157.329 67.7C115.41 67.7 81.4288 101.682 81.4288 143.6C81.4288 185.518 115.41 219.5 157.329 219.5Z" stroke="#ED616C" stroke-width="3" stroke-miterlimit="10" stroke-linecap="round" stroke-linejoin="round"/>
<path d="M275.729 447.6C281.031 447.6 285.329 443.302 285.329 438C285.329 432.698 281.031 428.4 275.729 428.4C270.427 428.4 266.129 432.698 266.129 438C266.129 443.302 270.427 447.6 275.729 447.6Z" fill="#4611EA"/>
<path d="M560.529 423.9H545.629L538.229 436.7L545.629 449.6H560.529L567.929 436.7L560.529 423.9Z" fill="#4611EA"/>
</g>
<defs>
<clipPath id="clip0_178_2169">
<rect width="761" height="478" fill="white"/>
</clipPath>
</defs>
</svg>

<?xml version="1.0" encoding="utf-8"?>
<!-- Generator: Adobe Illustrator 26.5.0, SVG Export Plug-In . SVG Version: 6.00 Build 0)  -->
<svg version="1.1" id="Layer_1" xmlns="http://www.w3.org/2000/svg" xmlns:xlink="http://www.w3.org/1999/xlink" x="0px" y="0px"
	 viewBox="0 0 761 478" style="enable-background:new 0 0 761 478;" xml:space="preserve">
<style type="text/css">
	.st0{fill:none;}
	.st1{fill:#4611EA;}
	.st2{fill:none;stroke:#F8D84D;stroke-width:3;stroke-linecap:round;stroke-linejoin:round;stroke-miterlimit:10;}
	.st3{fill:#F8D84D;}
	.st4{fill:none;stroke:#6BD3B1;stroke-width:3;stroke-linecap:round;stroke-linejoin:round;stroke-miterlimit:10;}
	.st5{fill:#6BD3B1;}
	.st6{fill:none;stroke:#4611EA;stroke-width:3;stroke-linecap:round;stroke-linejoin:round;stroke-miterlimit:10;}
	.st7{fill:none;stroke:#FFFFFF;stroke-width:3;stroke-linecap:round;stroke-linejoin:round;stroke-miterlimit:10;}
	.st8{fill:none;stroke:#7D58F0;stroke-width:3;stroke-linecap:round;stroke-linejoin:round;stroke-miterlimit:10;}
	.st9{fill:#7D58F0;}
	.st10{fill:none;stroke:#ED616C;stroke-width:3;stroke-linecap:round;stroke-linejoin:round;stroke-miterlimit:10;}
</style>
<rect class="st0" width="761" height="478"/>
<path class="st1" d="M511.9,82V46.6L476.6,82H511.9z"/>
<g id="Disk">
	<path class="st2" d="M617.9,371.8c78.8,0,142.7-63.9,142.7-142.7S696.7,86.4,617.9,86.4s-142.7,63.9-142.7,142.7
		S539.1,371.8,617.9,371.8z"/>
	<path class="st2" d="M617.9,363.8c74.4,0,134.7-60.3,134.7-134.7S692.3,94.4,617.9,94.4s-134.7,60.3-134.7,134.7
		S543.5,363.8,617.9,363.8z"/>
	<path class="st2" d="M617.9,355.8c70,0,126.7-56.7,126.7-126.7s-56.7-126.7-126.7-126.7c-70,0-126.7,56.7-126.7,126.7
		S548,355.8,617.9,355.8z"/>
	<path class="st2" d="M617.9,347.7c65.5,0,118.6-53.1,118.6-118.6s-53.1-118.6-118.6-118.6s-118.6,53.1-118.6,118.6
		S552.4,347.7,617.9,347.7z"/>
	<path class="st2" d="M617.9,339.7c61.1,0,110.6-49.5,110.6-110.6S679,118.5,617.9,118.5c-61.1,0-110.6,49.5-110.6,110.6
		S556.8,339.7,617.9,339.7z"/>
	<path class="st2" d="M617.9,331.7c56.7,0,102.6-45.9,102.6-102.6s-45.9-102.6-102.6-102.6c-56.7,0-102.6,45.9-102.6,102.6
		S561.3,331.7,617.9,331.7z"/>
	<path class="st2" d="M617.9,323.6c52.2,0,94.5-42.3,94.5-94.5s-42.3-94.5-94.5-94.5c-52.2,0-94.5,42.3-94.5,94.5
		S565.7,323.6,617.9,323.6z"/>
	<path class="st2" d="M617.9,315.6c47.8,0,86.5-38.7,86.5-86.5s-38.7-86.5-86.5-86.5c-47.8,0-86.5,38.7-86.5,86.5
		S570.2,315.6,617.9,315.6z"/>
	<path class="st2" d="M617.9,307.6c43.4,0,78.5-35.1,78.5-78.5s-35.1-78.5-78.5-78.5c-43.4,0-78.5,35.1-78.5,78.5
		S574.6,307.6,617.9,307.6z"/>
	<path class="st3" d="M617.9,236c3.8,0,6.9-3.1,6.9-6.9c0-3.8-3.1-6.9-6.9-6.9c-3.8,0-6.9,3.1-6.9,6.9
		C611,232.9,614.1,236,617.9,236z"/>
</g>
<g id="Video">
	<path class="st4" d="M119.4,457.1L348.6,339c3.9-2,5.5-6.8,3.4-10.8l-69.8-135.4c-2-3.9-6.8-5.5-10.8-3.4l-229.1,118
		c-3.9,2-5.5,6.8-3.4,10.8l69.8,135.4C110.7,457.6,115.5,459.1,119.4,457.1z"/>
	<path class="st5" d="M175.5,311.4l18,34.9l23-33.9L175.5,311.4z"/>
	<path class="st4" d="M121.9,430.7l203.8-105"/>
	<path class="st5" d="M147,425.5c4.5,0,8.2-3.7,8.2-8.2c0-4.5-3.7-8.2-8.2-8.2c-4.5,0-8.2,3.7-8.2,8.2
		C138.8,421.8,142.5,425.5,147,425.5z"/>
</g>
<g id="Audio">
	<path class="st6" d="M453,476.6l-116.7-55.7c-4-1.9-5.7-6.7-3.8-10.7l55.7-116.7c1.9-4,6.7-5.7,10.7-3.8l116.7,55.7
		c4,1.9,5.7,6.7,3.8,10.7l-55.7,116.7C461.7,476.8,457,478.5,453,476.6z"/>
	<path class="st7" d="M416.4,398.7l-9.1,19"/>
	<path class="st7" d="M447.7,383.5l-2.2,4.7c-5.2,10.8-18.1,15.4-28.9,10.2c-10.8-5.2-15.4-18.1-10.2-28.9l2.2-4.7"/>
	<path class="st7" d="M421.7,387.5c-5.2-2.5-7.4-8.7-4.9-13.8l9.2-19.2c2.5-5.2,8.7-7.4,13.8-4.9c5.2,2.5,7.4,8.7,4.9,13.8
		l-9.2,19.2C433.1,387.8,426.9,390,421.7,387.5z"/>
</g>
<g>
	<path class="st8" d="M236.6,107.2l139,141.5c3.1,3.2,8.2,3.2,11.3,0.1l94.8-93.1c3.2-3.1,3.2-8.2,0.1-11.3L342.8,2.9
		c-3.1-3.2-8.2-3.2-11.3-0.1l-94.8,93.1C233.5,99,233.5,104.1,236.6,107.2z"/>
	<path class="st9" d="M351.7,151.2l13.6-45.9L319.1,118L351.7,151.2z"/>
	<path class="st9" d="M363.7,163.4l9.1-30.8l-31,8.5L363.7,163.4z"/>
	<path class="st9" d="M383.8,127.1c2.9,0,5.3-2.4,5.3-5.3c0-2.9-2.4-5.3-5.3-5.3s-5.3,2.4-5.3,5.3
		C378.5,124.7,380.9,127.1,383.8,127.1z"/>
</g>
<g id="Music">
	<path class="st10" d="M161.4,168.1v-53.8h21.1"/>
	<path class="st10" d="M151.9,178.4c-5.3,0-9.6-4.3-9.6-9.6s4.3-9.6,9.6-9.6s9.6,4.3,9.6,9.6C161.4,174.1,157.2,178.4,151.9,178.4z"
		/>
	<path class="st10" d="M157.3,219.5c41.9,0,75.9-34,75.9-75.9s-34-75.9-75.9-75.9c-41.9,0-75.9,34-75.9,75.9
		S115.4,219.5,157.3,219.5z"/>
</g>
<path class="st1" d="M275.7,447.6c5.3,0,9.6-4.3,9.6-9.6s-4.3-9.6-9.6-9.6s-9.6,4.3-9.6,9.6S270.4,447.6,275.7,447.6z"/>
<path class="st1" d="M560.5,423.9h-14.9l-7.4,12.8l7.4,12.9h14.9l7.4-12.9L560.5,423.9z"/>
</svg>
